!!!OTL: "Weihelied " ALLES SCHWEIGE JEDER NEIGE
!!!ARE: Europa, Mitteleuropa, Deutschland
!!!SCT: Z1141
!!!YEM: Copyright 1995, estate of Helmut Schaffrath.
**kern
*ICvox
*Ivox
*M3/2
*k[b-]
*F:
{8cc
8a
8b-
8g
2f
2c
=1
4f
4g
2a
2f}
=2
{4a
4b-
2cc
2dd
=3
4cc
4b-
2b-
2a}
=4
{4.cc
8a
2f
2ff
=5
4.dd
8cc
4.b-
8a
4.g
8a}
=6
{4b-
4g
4.cc
8b-
4a
4g
=7
4f
4g
4a
4b-
4cc
4dd
=8
1cc
2ee
=9
2ff
1r}
==
!!!AGN: Vaterland und Wehr
!!!ONB: ESAC (Essen Associative Code) Database: ZUCCAL
!!!AMT: simple triple
!!!AIN: vox
!!!EED: Helmut Schaffrath
!!!EEV: 1.0
*-
